icons/modern/alarm-clock.svg

<svg width="32" height="32" viewBox="0 0 32 32" fill="none" xmlns="http://www.w3.org/2000/svg">
<g filter="url(#filter0_ii_18_13319)">
<path d="M7.07768 26.9084L10.801 23.614L20.7894 22.3794L25.9347 26.9588C26.235 27.226 26.427 27.594 26.4744 27.9932C26.5905 28.9713 25.8265 29.8314 24.8415 29.8314H8.18517C7.26213 29.8314 6.51385 29.0831 6.51385 28.1601C6.51385 27.6814 6.71914 27.2256 7.07768 26.9084Z" fill="url(#paint0_linear_18_13319)"/>
<path d="M7.07768 26.9084L10.801 23.614L20.7894 22.3794L25.9347 26.9588C26.235 27.226 26.427 27.594 26.4744 27.9932C26.5905 28.9713 25.8265 29.8314 24.8415 29.8314H8.18517C7.26213 29.8314 6.51385 29.0831 6.51385 28.1601C6.51385 27.6814 6.71914 27.2256 7.07768 26.9084Z" fill="url(#paint1_linear_18_13319)"/>
<path d="M7.07768 26.9084L10.801 23.614L20.7894 22.3794L25.9347 26.9588C26.235 27.226 26.427 27.594 26.4744 27.9932C26.5905 28.9713 25.8265 29.8314 24.8415 29.8314H8.18517C7.26213 29.8314 6.51385 29.0831 6.51385 28.1601C6.51385 27.6814 6.71914 27.2256 7.07768 26.9084Z" fill="url(#paint2_radial_18_13319)"/>
</g>
<path d="M7.07768 26.9084L10.801 23.614L20.7894 22.3794L25.9347 26.9588C26.235 27.226 26.427 27.594 26.4744 27.9932C26.5905 28.9713 25.8265 29.8314 24.8415 29.8314H8.18517C7.26213 29.8314 6.51385 29.0831 6.51385 28.1601C6.51385 27.6814 6.71914 27.2256 7.07768 26.9084Z" fill="url(#paint3_linear_18_13319)"/>
<g filter="url(#filter1_ii_18_13319)">
<path d="M16.5 26.8703C22.0152 26.8703 26.4862 22.3993 26.4862 16.8841C26.4862 11.3689 22.0152 6.89795 16.5 6.89795C10.9848 6.89795 6.51385 11.3689 6.51385 16.8841C6.51385 22.3993 10.9848 26.8703 16.5 26.8703Z" fill="url(#paint4_radial_18_13319)"/>
<path d="M16.5 26.8703C22.0152 26.8703 26.4862 22.3993 26.4862 16.8841C26.4862 11.3689 22.0152 6.89795 16.5 6.89795C10.9848 6.89795 6.51385 11.3689 6.51385 16.8841C6.51385 22.3993 10.9848 26.8703 16.5 26.8703Z" fill="url(#paint5_radial_18_13319)"/>
</g>
<g filter="url(#filter2_i_18_13319)">
<path d="M16.5 23.7225C20.3252 23.7225 23.4262 20.6216 23.4262 16.7963C23.4262 12.9711 20.3252 9.87012 16.5 9.87012C12.6748 9.87012 9.57379 12.9711 9.57379 16.7963C9.57379 20.6216 12.6748 23.7225 16.5 23.7225Z" fill="url(#paint6_linear_18_13319)"/>
<path d="M16.5 23.7225C20.3252 23.7225 23.4262 20.6216 23.4262 16.7963C23.4262 12.9711 20.3252 9.87012 16.5 9.87012C12.6748 9.87012 9.57379 12.9711 9.57379 16.7963C9.57379 20.6216 12.6748 23.7225 16.5 23.7225Z" fill="url(#paint7_radial_18_13319)"/>
</g>
<path d="M16.5 23.7225C20.3252 23.7225 23.4262 20.6216 23.4262 16.7963C23.4262 12.9711 20.3252 9.87012 16.5 9.87012C12.6748 9.87012 9.57379 12.9711 9.57379 16.7963C9.57379 20.6216 12.6748 23.7225 16.5 23.7225Z" fill="url(#paint8_radial_18_13319)"/>
<g filter="url(#filter3_f_18_13319)">
<path fill-rule="evenodd" clip-rule="evenodd" d="M16.8811 13.3337C16.8811 12.7817 16.4336 12.3342 15.8816 12.3342C15.3296 12.3342 14.8821 12.7817 14.8821 13.3337V17.3303C14.8821 17.6677 15.0493 17.9661 15.3054 18.1471L17.2498 20.0381C17.6478 20.4204 18.2803 20.4077 18.6625 20.0097C19.0448 19.6118 19.0321 18.9793 18.6341 18.597L16.8811 16.8921V13.3337Z" fill="url(#paint9_linear_18_13319)"/>
</g>
<path d="M6.30578 2.80381C4.31186 4.21494 3.53751 6.81387 4.27314 9.09807C4.50544 9.80872 5.31851 10.0929 5.91862 9.67672L12.5198 5.01694C13.1103 4.60071 13.1684 3.6972 12.6263 3.19975C10.8937 1.62619 8.2997 1.39268 6.30578 2.80381Z" fill="url(#paint10_radial_18_13319)"/>
<path d="M6.30578 2.80381C4.31186 4.21494 3.53751 6.81387 4.27314 9.09807C4.50544 9.80872 5.31851 10.0929 5.91862 9.67672L12.5198 5.01694C13.1103 4.60071 13.1684 3.6972 12.6263 3.19975C10.8937 1.62619 8.2997 1.39268 6.30578 2.80381Z" fill="url(#paint11_linear_18_13319)"/>
<path d="M26.6942 2.80381C28.6882 4.21494 29.4625 6.81387 28.7269 9.09807C28.4946 9.80872 27.6815 10.0929 27.0814 9.67672L20.4802 5.01694C19.8897 4.60071 19.8316 3.6972 20.3737 3.19975C22.1063 1.62619 24.7003 1.39268 26.6942 2.80381Z" fill="url(#paint12_radial_18_13319)"/>
<path d="M26.6942 2.80381C28.6882 4.21494 29.4625 6.81387 28.7269 9.09807C28.4946 9.80872 27.6815 10.0929 27.0814 9.67672L20.4802 5.01694C19.8897 4.60071 19.8316 3.6972 20.3737 3.19975C22.1063 1.62619 24.7003 1.39268 26.6942 2.80381Z" fill="url(#paint13_linear_18_13319)"/>
<path fill-rule="evenodd" clip-rule="evenodd" d="M15.8086 16.1886C16.1908 15.7907 16.8233 15.7779 17.2213 16.1602L19.2526 18.1357C19.6505 18.518 19.6632 19.1505 19.281 19.5484C18.8987 19.9464 18.2662 19.9591 17.8682 19.5768L15.837 17.6014C15.439 17.2191 15.4263 16.5866 15.8086 16.1886Z" fill="url(#paint14_linear_18_13319)"/>
<path fill-rule="evenodd" clip-rule="evenodd" d="M16.5 11.8728C17.052 11.8728 17.4995 12.3203 17.4995 12.8723V16.8689C17.4995 17.4209 17.052 17.8684 16.5 17.8684C15.948 17.8684 15.5005 17.4209 15.5005 16.8689V12.8723C15.5005 12.3203 15.948 11.8728 16.5 11.8728Z" fill="url(#paint15_linear_18_13319)"/>
<path fill-rule="evenodd" clip-rule="evenodd" d="M16.5 11.8728C17.052 11.8728 17.4995 12.3203 17.4995 12.8723V16.8689C17.4995 17.4209 17.052 17.8684 16.5 17.8684C15.948 17.8684 15.5005 17.4209 15.5005 16.8689V12.8723C15.5005 12.3203 15.948 11.8728 16.5 11.8728Z" fill="url(#paint16_radial_18_13319)"/>
<defs>
<filter id="filter0_ii_18_13319" x="6.01385" y="22.3794" width="20.9723" height="7.9519" filterUnits="userSpaceOnUse" color-interpolation-filters="sRGB">
<feFlood flood-opacity="0" result="BackgroundImageFix"/>
<feBlend mode="normal" in="SourceGraphic" in2="BackgroundImageFix" result="shape"/>
<feColorMatrix in="SourceAlpha" type="matrix" values="0 0 0 0 0 0 0 0 0 0 0 0 0 0 0 0 0 0 127 0" result="hardAlpha"/>
<feOffset dx="-0.5" dy="0.5"/>
<feGaussianBlur stdDeviation="0.5"/>
<feComposite in2="hardAlpha" operator="arithmetic" k2="-1" k3="1"/>
<feColorMatrix type="matrix" values="0 0 0 0 0.980392 0 0 0 0 0.945098 0 0 0 0 1 0 0 0 1 0"/>
<feBlend mode="normal" in2="shape" result="effect1_innerShadow_18_13319"/>
<feColorMatrix in="SourceAlpha" type="matrix" values="0 0 0 0 0 0 0 0 0 0 0 0 0 0 0 0 0 0 127 0" result="hardAlpha"/>
<feOffset dx="0.5" dy="0.5"/>
<feGaussianBlur stdDeviation="0.5"/>
<feComposite in2="hardAlpha" operator="arithmetic" k2="-1" k3="1"/>
<feColorMatrix type="matrix" values="0 0 0 0 0.576471 0 0 0 0 0.533333 0 0 0 0 0.584314 0 0 0 1 0"/>
<feBlend mode="normal" in2="effect1_innerShadow_18_13319" result="effect2_innerShadow_18_13319"/>
</filter>
<filter id="filter1_ii_18_13319" x="6.21385" y="6.89795" width="20.6723" height="19.9724" filterUnits="userSpaceOnUse" color-interpolation-filters="sRGB">
<feFlood flood-opacity="0" result="BackgroundImageFix"/>
<feBlend mode="normal" in="SourceGraphic" in2="BackgroundImageFix" result="shape"/>
<feColorMatrix in="SourceAlpha" type="matrix" values="0 0 0 0 0 0 0 0 0 0 0 0 0 0 0 0 0 0 127 0" result="hardAlpha"/>
<feOffset dx="0.4"/>
<feGaussianBlur stdDeviation="0.4"/>
<feComposite in2="hardAlpha" operator="arithmetic" k2="-1" k3="1"/>
<feColorMatrix type="matrix" values="0 0 0 0 0.682353 0 0 0 0 0.25098 0 0 0 0 0.262745 0 0 0 1 0"/>
<feBlend mode="normal" in2="shape" result="effect1_innerShadow_18_13319"/>
<feColorMatrix in="SourceAlpha" type="matrix" values="0 0 0 0 0 0 0 0 0 0 0 0 0 0 0 0 0 0 127 0" result="hardAlpha"/>
<feOffset dx="-0.3"/>
<feGaussianBlur stdDeviation="0.3"/>
<feComposite in2="hardAlpha" operator="arithmetic" k2="-1" k3="1"/>
<feColorMatrix type="matrix" values="0 0 0 0 1 0 0 0 0 0.309804 0 0 0 0 0.588235 0 0 0 1 0"/>
<feBlend mode="normal" in2="effect1_innerShadow_18_13319" result="effect2_innerShadow_18_13319"/>
</filter>
<filter id="filter2_i_18_13319" x="9.07379" y="9.87012" width="14.3524" height="14.3525" filterUnits="userSpaceOnUse" color-interpolation-filters="sRGB">
<feFlood flood-opacity="0" result="BackgroundImageFix"/>
<feBlend mode="normal" in="SourceGraphic" in2="BackgroundImageFix" result="shape"/>
<feColorMatrix in="SourceAlpha" type="matrix" values="0 0 0 0 0 0 0 0 0 0 0 0 0 0 0 0 0 0 127 0" result="hardAlpha"/>
<feOffset dx="-0.5" dy="0.5"/>
<feGaussianBlur stdDeviation="0.5"/>
<feComposite in2="hardAlpha" operator="arithmetic" k2="-1" k3="1"/>
<feColorMatrix type="matrix" values="0 0 0 0 0.866667 0 0 0 0 0.631373 0 0 0 0 0.776471 0 0 0 1 0"/>
<feBlend mode="normal" in2="shape" result="effect1_innerShadow_18_13319"/>
</filter>
<filter id="filter3_f_18_13319" x="14.1321" y="11.5842" width="5.55902" height="9.48242" filterUnits="userSpaceOnUse" color-interpolation-filters="sRGB">
<feFlood flood-opacity="0" result="BackgroundImageFix"/>
<feBlend mode="normal" in="SourceGraphic" in2="BackgroundImageFix" result="shape"/>
<feGaussianBlur stdDeviation="0.375" result="effect1_foregroundBlur_18_13319"/>
</filter>
<linearGradient id="paint0_linear_18_13319" x1="8.02414" y1="28.1717" x2="25.2489" y2="28.1717" gradientUnits="userSpaceOnUse">
<stop stop-color="#D4BDE5"/>
<stop offset="1" stop-color="#E5CAF2"/>
</linearGradient>
<linearGradient id="paint1_linear_18_13319" x1="17.0729" y1="30.2537" x2="17.0729" y2="28.7091" gradientUnits="userSpaceOnUse">
<stop stop-color="#D4A6F6"/>
<stop offset="1" stop-color="#D4A6F6" stop-opacity="0"/>
</linearGradient>
<radialGradient id="paint2_radial_18_13319" cx="0" cy="0" r="1" gradientUnits="userSpaceOnUse" gradientTransform="translate(14.5028 22.3794) rotate(104.908) scale(5.09461 7.6923)">
<stop offset="0.654006" stop-color="#BE87BE"/>
<stop offset="1" stop-color="#BE87BE" stop-opacity="0"/>
</radialGradient>
<linearGradient id="paint3_linear_18_13319" x1="24.3438" y1="25.0727" x2="23.5625" y2="25.9164" gradientUnits="userSpaceOnUse">
<stop stop-color="#F3E5F1"/>
<stop offset="1" stop-color="#F3E5F1" stop-opacity="0"/>
</linearGradient>
<radialGradient id="paint4_radial_18_13319" cx="0" cy="0" r="1" gradientUnits="userSpaceOnUse" gradientTransform="translate(21.9375 9.55728) rotate(120.726) scale(18.104)">
<stop stop-color="#FF4995"/>
<stop offset="1" stop-color="#FF435C"/>
</radialGradient>
<radialGradient id="paint5_radial_18_13319" cx="0" cy="0" r="1" gradientUnits="userSpaceOnUse" gradientTransform="translate(16.5 16.8841) rotate(90) scale(7.82942)">
<stop offset="0.848448" stop-color="#D2355C"/>
<stop offset="1" stop-color="#D2355C" stop-opacity="0"/>
</radialGradient>
<linearGradient id="paint6_linear_18_13319" x1="11.25" y1="12.1196" x2="20.3125" y2="23.1821" gradientUnits="userSpaceOnUse">
<stop stop-color="#FFECFF"/>
<stop offset="1" stop-color="#DDC8E2"/>
</linearGradient>
<radialGradient id="paint7_radial_18_13319" cx="0" cy="0" r="1" gradientUnits="userSpaceOnUse" gradientTransform="translate(16.5 10.6196) rotate(90) scale(13.75)">
<stop offset="0.718182" stop-color="#B89A9F" stop-opacity="0"/>
<stop offset="1" stop-color="#B89A9F"/>
</radialGradient>
<radialGradient id="paint8_radial_18_13319" cx="0" cy="0" r="1" gradientUnits="userSpaceOnUse" gradientTransform="translate(14.375 15.1196) rotate(32.6073) scale(10.0904 8.90964)">
<stop offset="0.887109" stop-color="#B394A7" stop-opacity="0"/>
<stop offset="0.977057" stop-color="#B394A7"/>
</radialGradient>
<linearGradient id="paint9_linear_18_13319" x1="16.9116" y1="12.3342" x2="16.9116" y2="20.3167" gradientUnits="userSpaceOnUse">
<stop stop-color="#C4AFCA"/>
<stop offset="1" stop-color="#CFA5CF"/>
</linearGradient>
<radialGradient id="paint10_radial_18_13319" cx="0" cy="0" r="1" gradientUnits="userSpaceOnUse" gradientTransform="translate(12.6875 4.93213) rotate(-169.408) scale(7.82074 8.79834)">
<stop stop-color="#FFDC56"/>
<stop offset="0.593115" stop-color="#FFB02E"/>
<stop offset="1" stop-color="#BF8942"/>
</radialGradient>
<linearGradient id="paint11_linear_18_13319" x1="10.2193" y1="6.69515" x2="9.8888" y2="6.26236" gradientUnits="userSpaceOnUse">
<stop stop-color="#F88F6D"/>
<stop offset="1" stop-color="#F88F6D" stop-opacity="0"/>
</linearGradient>
<radialGradient id="paint12_radial_18_13319" cx="0" cy="0" r="1" gradientUnits="userSpaceOnUse" gradientTransform="translate(28.6875 4.93213) rotate(-173.953) scale(8.73611 15.1601)">
<stop stop-color="#FFFF63"/>
<stop offset="0.7359" stop-color="#F1AE2C"/>
<stop offset="1" stop-color="#C48039"/>
</radialGradient>
<linearGradient id="paint13_linear_18_13319" x1="24.5" y1="7.97779" x2="24.9027" y2="7.41122" gradientUnits="userSpaceOnUse">
<stop stop-color="#E76D2F"/>
<stop offset="1" stop-color="#E76D2F" stop-opacity="0"/>
</linearGradient>
<linearGradient id="paint14_linear_18_13319" x1="18.0619" y1="17.6428" x2="17.7252" y2="19.7528" gradientUnits="userSpaceOnUse">
<stop stop-color="#FF4F5C"/>
<stop offset="1" stop-color="#F0368B"/>
</linearGradient>
<linearGradient id="paint15_linear_18_13319" x1="16.0642" y1="14.4329" x2="17.9272" y2="14.4329" gradientUnits="userSpaceOnUse">
<stop stop-color="#3A234F"/>
<stop offset="1" stop-color="#3A323B"/>
</linearGradient>
<radialGradient id="paint16_radial_18_13319" cx="0" cy="0" r="1" gradientUnits="userSpaceOnUse" gradientTransform="translate(17.007 12.2781) rotate(114.747) scale(1.21106 1.15474)">
<stop stop-color="#463C4B"/>
<stop offset="1" stop-color="#463C4B" stop-opacity="0"/>
</radialGradient>
</defs>
</svg>

<svg width="32" height="32" fill="none" xmlns="http://www.w3.org/2000/svg"><g filter="url(#a)"><path d="m7.078 26.908 3.723-3.294 9.988-1.235 5.146 4.58a1.644 1.644 0 0 1-1.093 2.872H8.184a1.671 1.671 0 0 1-1.107-2.923Z" fill="url(#b)"/><path d="m7.078 26.908 3.723-3.294 9.988-1.235 5.146 4.58a1.644 1.644 0 0 1-1.093 2.872H8.184a1.671 1.671 0 0 1-1.107-2.923Z" fill="url(#c)"/><path d="m7.078 26.908 3.723-3.294 9.988-1.235 5.146 4.58a1.644 1.644 0 0 1-1.093 2.872H8.184a1.671 1.671 0 0 1-1.107-2.923Z" fill="url(#d)"/></g><path d="m7.078 26.908 3.723-3.294 9.988-1.235 5.146 4.58a1.644 1.644 0 0 1-1.093 2.872H8.184a1.671 1.671 0 0 1-1.107-2.923Z" fill="url(#e)"/><g filter="url(#f)"><path d="M16.5 26.87c5.515 0 9.986-4.47 9.986-9.986 0-5.515-4.47-9.986-9.986-9.986-5.515 0-9.986 4.47-9.986 9.986 0 5.515 4.47 9.986 9.986 9.986Z" fill="url(#g)"/><path d="M16.5 26.87c5.515 0 9.986-4.47 9.986-9.986 0-5.515-4.47-9.986-9.986-9.986-5.515 0-9.986 4.47-9.986 9.986 0 5.515 4.47 9.986 9.986 9.986Z" fill="url(#h)"/></g><g filter="url(#i)"><path d="M16.5 23.723a6.926 6.926 0 1 0 0-13.853 6.926 6.926 0 0 0 0 13.853Z" fill="url(#j)"/><path d="M16.5 23.723a6.926 6.926 0 1 0 0-13.853 6.926 6.926 0 0 0 0 13.853Z" fill="url(#k)"/></g><path d="M16.5 23.723a6.926 6.926 0 1 0 0-13.853 6.926 6.926 0 0 0 0 13.853Z" fill="url(#l)"/><g filter="url(#m)"><path fill-rule="evenodd" clip-rule="evenodd" d="M16.881 13.334a1 1 0 0 0-1.999 0v3.996c0 .338.167.636.423.817l1.945 1.891a1 1 0 1 0 1.384-1.441l-1.753-1.705v-3.558Z" fill="url(#n)"/></g><path d="M6.306 2.804c-1.994 1.41-2.768 4.01-2.033 6.294.232.71 1.046.995 1.646.579l6.6-4.66c.591-.416.65-1.32.107-1.817-1.732-1.574-4.326-1.807-6.32-.396Z" fill="url(#o)"/><path d="M6.306 2.804c-1.994 1.41-2.768 4.01-2.033 6.294.232.71 1.046.995 1.646.579l6.6-4.66c.591-.416.65-1.32.107-1.817-1.732-1.574-4.326-1.807-6.32-.396Z" fill="url(#p)"/><path d="M26.694 2.804c1.994 1.41 2.768 4.01 2.033 6.294-.232.71-1.046.995-1.646.579l-6.6-4.66c-.591-.416-.65-1.32-.107-1.817 1.732-1.574 4.326-1.807 6.32-.396Z" fill="url(#q)"/><path d="M26.694 2.804c1.994 1.41 2.768 4.01 2.033 6.294-.232.71-1.046.995-1.646.579l-6.6-4.66c-.591-.416-.65-1.32-.107-1.817 1.732-1.574 4.326-1.807 6.32-.396Z" fill="url(#r)"/><path fill-rule="evenodd" clip-rule="evenodd" d="M15.809 16.189a1 1 0 0 1 1.412-.029l2.032 1.976a1 1 0 0 1-1.385 1.44l-2.031-1.975a1 1 0 0 1-.028-1.412Z" fill="url(#s)"/><path fill-rule="evenodd" clip-rule="evenodd" d="M16.5 11.873a1 1 0 0 1 1 1v3.996a1 1 0 0 1-2 0v-3.997a1 1 0 0 1 1-1Z" fill="url(#t)"/><path fill-rule="evenodd" clip-rule="evenodd" d="M16.5 11.873a1 1 0 0 1 1 1v3.996a1 1 0 0 1-2 0v-3.997a1 1 0 0 1 1-1Z" fill="url(#u)"/><defs><linearGradient id="b" x1="8.024" y1="28.172" x2="25.249" y2="28.172" gradientUnits="userSpaceOnUse"><stop stop-color="#D4BDE5"/><stop offset="1" stop-color="#E5CAF2"/></linearGradient><linearGradient id="c" x1="17.073" y1="30.254" x2="17.073" y2="28.709" gradientUnits="userSpaceOnUse"><stop stop-color="#D4A6F6"/><stop offset="1" stop-color="#D4A6F6" stop-opacity="0"/></linearGradient><linearGradient id="e" x1="24.344" y1="25.073" x2="23.563" y2="25.916" gradientUnits="userSpaceOnUse"><stop stop-color="#F3E5F1"/><stop offset="1" stop-color="#F3E5F1" stop-opacity="0"/></linearGradient><linearGradient id="j" x1="11.25" y1="12.12" x2="20.313" y2="23.182" gradientUnits="userSpaceOnUse"><stop stop-color="#FFECFF"/><stop offset="1" stop-color="#DDC8E2"/></linearGradient><linearGradient id="n" x1="16.912" y1="12.334" x2="16.912" y2="20.317" gradientUnits="userSpaceOnUse"><stop stop-color="#C4AFCA"/><stop offset="1" stop-color="#CFA5CF"/></linearGradient><linearGradient id="p" x1="10.219" y1="6.695" x2="9.889" y2="6.262" gradientUnits="userSpaceOnUse"><stop stop-color="#F88F6D"/><stop offset="1" stop-color="#F88F6D" stop-opacity="0"/></linearGradient><linearGradient id="r" x1="24.5" y1="7.978" x2="24.903" y2="7.411" gradientUnits="userSpaceOnUse"><stop stop-color="#E76D2F"/><stop offset="1" stop-color="#E76D2F" stop-opacity="0"/></linearGradient><linearGradient id="s" x1="18.062" y1="17.643" x2="17.725" y2="19.753" gradientUnits="userSpaceOnUse"><stop stop-color="#FF4F5C"/><stop offset="1" stop-color="#F0368B"/></linearGradient><linearGradient id="t" x1="16.064" y1="14.433" x2="17.927" y2="14.433" gradientUnits="userSpaceOnUse"><stop stop-color="#3A234F"/><stop offset="1" stop-color="#3A323B"/></linearGradient><radialGradient id="d" cx="0" cy="0" r="1" gradientUnits="userSpaceOnUse" gradientTransform="rotate(104.908 -1.349 16.763) scale(5.09461 7.6923)"><stop offset=".654" stop-color="#BE87BE"/><stop offset="1" stop-color="#BE87BE" stop-opacity="0"/></radialGradient><radialGradient id="g" cx="0" cy="0" r="1" gradientUnits="userSpaceOnUse" gradientTransform="rotate(120.726 8.25 11.02) scale(18.104)"><stop stop-color="#FF4995"/><stop offset="1" stop-color="#FF435C"/></radialGradient><radialGradient id="h" cx="0" cy="0" r="1" gradientUnits="userSpaceOnUse" gradientTransform="rotate(90 -.192 16.692) scale(7.82942)"><stop offset=".848" stop-color="#D2355C"/><stop offset="1" stop-color="#D2355C" stop-opacity="0"/></radialGradient><radialGradient id="k" cx="0" cy="0" r="1" gradientUnits="userSpaceOnUse" gradientTransform="rotate(90 2.94 13.56) scale(13.75)"><stop offset=".718" stop-color="#B89A9F" stop-opacity="0"/><stop offset="1" stop-color="#B89A9F"/></radialGradient><radialGradient id="l" cx="0" cy="0" r="1" gradientUnits="userSpaceOnUse" gradientTransform="rotate(32.607 -18.659 32.133) scale(10.0904 8.90964)"><stop offset=".887" stop-color="#B394A7" stop-opacity="0"/><stop offset=".977" stop-color="#B394A7"/></radialGradient><radialGradient id="o" cx="0" cy="0" r="1" gradientUnits="userSpaceOnUse" gradientTransform="matrix(-7.68748 -1.43756 1.61726 -8.64843 12.688 4.932)"><stop stop-color="#FFDC56"/><stop offset=".593" stop-color="#FFB02E"/><stop offset="1" stop-color="#BF8942"/></radialGradient><radialGradient id="q" cx="0" cy="0" r="1" gradientUnits="userSpaceOnUse" gradientTransform="matrix(-8.6875 -.9203 1.59703 -15.07575 28.688 4.932)"><stop stop-color="#FFFF63"/><stop offset=".736" stop-color="#F1AE2C"/><stop offset="1" stop-color="#C48039"/></radialGradient><radialGradient id="u" cx="0" cy="0" r="1" gradientUnits="userSpaceOnUse" gradientTransform="matrix(-.50696 1.09984 -1.0487 -.48339 17.007 12.278)"><stop stop-color="#463C4B"/><stop offset="1" stop-color="#463C4B" stop-opacity="0"/></radialGradient><filter id="a" x="6.014" y="22.379" width="20.972" height="7.952" filterUnits="userSpaceOnUse" color-interpolation-filters="sRGB"><feFlood flood-opacity="0" result="BackgroundImageFix"/><feBlend in="SourceGraphic" in2="BackgroundImageFix" result="shape"/><feColorMatrix in="SourceAlpha" values="0 0 0 0 0 0 0 0 0 0 0 0 0 0 0 0 0 0 127 0" result="hardAlpha"/><feOffset dx="-.5" dy=".5"/><feGaussianBlur stdDeviation=".5"/><feComposite in2="hardAlpha" operator="arithmetic" k2="-1" k3="1"/><feColorMatrix values="0 0 0 0 0.980392 0 0 0 0 0.945098 0 0 0 0 1 0 0 0 1 0"/><feBlend in2="shape" result="effect1_innerShadow_18_13319"/><feColorMatrix in="SourceAlpha" values="0 0 0 0 0 0 0 0 0 0 0 0 0 0 0 0 0 0 127 0" result="hardAlpha"/><feOffset dx=".5" dy=".5"/><feGaussianBlur stdDeviation=".5"/><feComposite in2="hardAlpha" operator="arithmetic" k2="-1" k3="1"/><feColorMatrix values="0 0 0 0 0.576471 0 0 0 0 0.533333 0 0 0 0 0.584314 0 0 0 1 0"/><feBlend in2="effect1_innerShadow_18_13319" result="effect2_innerShadow_18_13319"/></filter><filter id="f" x="6.214" y="6.898" width="20.672" height="19.972" filterUnits="userSpaceOnUse" color-interpolation-filters="sRGB"><feFlood flood-opacity="0" result="BackgroundImageFix"/><feBlend in="SourceGraphic" in2="BackgroundImageFix" result="shape"/><feColorMatrix in="SourceAlpha" values="0 0 0 0 0 0 0 0 0 0 0 0 0 0 0 0 0 0 127 0" result="hardAlpha"/><feOffset dx=".4"/><feGaussianBlur stdDeviation=".4"/><feComposite in2="hardAlpha" operator="arithmetic" k2="-1" k3="1"/><feColorMatrix values="0 0 0 0 0.682353 0 0 0 0 0.25098 0 0 0 0 0.262745 0 0 0 1 0"/><feBlend in2="shape" result="effect1_innerShadow_18_13319"/><feColorMatrix in="SourceAlpha" values="0 0 0 0 0 0 0 0 0 0 0 0 0 0 0 0 0 0 127 0" result="hardAlpha"/><feOffset dx="-.3"/><feGaussianBlur stdDeviation=".3"/><feComposite in2="hardAlpha" operator="arithmetic" k2="-1" k3="1"/><feColorMatrix values="0 0 0 0 1 0 0 0 0 0.309804 0 0 0 0 0.588235 0 0 0 1 0"/><feBlend in2="effect1_innerShadow_18_13319" result="effect2_innerShadow_18_13319"/></filter><filter id="i" x="9.074" y="9.87" width="14.352" height="14.352" filterUnits="userSpaceOnUse" color-interpolation-filters="sRGB"><feFlood flood-opacity="0" result="BackgroundImageFix"/><feBlend in="SourceGraphic" in2="BackgroundImageFix" result="shape"/><feColorMatrix in="SourceAlpha" values="0 0 0 0 0 0 0 0 0 0 0 0 0 0 0 0 0 0 127 0" result="hardAlpha"/><feOffset dx="-.5" dy=".5"/><feGaussianBlur stdDeviation=".5"/><feComposite in2="hardAlpha" operator="arithmetic" k2="-1" k3="1"/><feColorMatrix values="0 0 0 0 0.866667 0 0 0 0 0.631373 0 0 0 0 0.776471 0 0 0 1 0"/><feBlend in2="shape" result="effect1_innerShadow_18_13319"/></filter><filter id="m" x="14.132" y="11.584" width="5.559" height="9.482" filterUnits="userSpaceOnUse" color-interpolation-filters="sRGB"><feFlood flood-opacity="0" result="BackgroundImageFix"/><feBlend in="SourceGraphic" in2="BackgroundImageFix" result="shape"/><feGaussianBlur stdDeviation=".375" result="effect1_foregroundBlur_18_13319"/></filter></defs></svg>
